src/images/ms-azure.svg

<?xml version="1.0" encoding="UTF-8" standalone="no"?>
<svg
   xmlns:dc="http://purl.org/dc/elements/1.1/"
   xmlns:cc="http://creativecommons.org/ns#"
   xmlns:rdf="http://www.w3.org/1999/02/22-rdf-syntax-ns#"
   xmlns:svg="http://www.w3.org/2000/svg"
   xmlns="http://www.w3.org/2000/svg"
   viewBox="0 0 544.25201 287.24399"
   height="287.24399"
   width="544.25201"
   xml:space="preserve"
   id="svg2"
   version="1.1"><metadata
     id="metadata8"><rdf:RDF><cc:Work
         rdf:about=""><dc:format>image/svg+xml</dc:format><dc:type
           rdf:resource="http://purl.org/dc/dcmitype/StillImage" /></cc:Work></rdf:RDF></metadata><defs
     id="defs6"><clipPath
       id="clipPath26"
       clipPathUnits="userSpaceOnUse"><path
         id="path24"
         d="M 0,215.433 H 408.189 V 0 H 0 Z" /></clipPath><clipPath
       id="clipPath46"
       clipPathUnits="userSpaceOnUse"><path
         id="path44"
         d="M 0,215.433 H 408.189 V 0 H 0 Z" /></clipPath></defs><g
     transform="matrix(1.3333333,0,0,-1.3333333,0,287.244)"
     id="g10"><g
       transform="translate(178,96.1318)"
       id="g12"><path
         id="path14"
         style="fill:#706d6e;fill-opacity:1;fill-rule:nonzero;stroke:none"
         d="M 0,0 -4.482,-12.77 H 4.609 L 0.148,0 Z M 3.129,5.624 14.546,-24.694 H 8.753 l -2.685,7.526 H -5.877 l -2.58,-7.526 h -5.751 L -2.791,5.624 Z" /></g><g
       transform="translate(195.1108,93.1719)"
       id="g16"><path
         id="path18"
         style="fill:#706d6e;fill-opacity:1;fill-rule:nonzero;stroke:none"
         d="M 0,0 H 17.358 V -2.051 L 5.962,-17.675 h 11.46 v -4.059 H -0.803 v 2.431 L 10.423,-4.06 H 0 Z" /></g><g
       id="g20"><g
         clip-path="url(#clipPath26)"
         id="g22"><g
           transform="translate(234.3042,93.1719)"
           id="g28"><path
             id="path30"
             style="fill:#706d6e;fill-opacity:1;fill-rule:nonzero;stroke:none"
             d="m 0,0 v -21.734 h -5.159 v 2.854 h -0.084 c -0.677,-0.986 -1.583,-1.759 -2.717,-2.315 -1.135,-0.557 -2.407,-0.835 -3.816,-0.835 -2.524,0 -4.444,0.715 -5.762,2.146 -1.318,1.43 -1.977,3.654 -1.977,6.67 V 0 h 5.181 v -12.601 c 0,-1.832 0.362,-3.211 1.088,-4.133 0.726,-0.923 1.822,-1.385 3.288,-1.385 1.452,0 2.614,0.511 3.488,1.533 0.874,1.022 1.311,2.357 1.311,4.007 l 0,12.579 z" /></g><g
           transform="translate(249.7095,93.5312)"
           id="g32"><path
             id="path34"
             style="fill:#706d6e;fill-opacity:1;fill-rule:nonzero;stroke:none"
             d="m 0,0 c 0.409,0 0.775,-0.028 1.1,-0.085 0.324,-0.056 0.599,-0.126 0.824,-0.211 v -5.18 c -0.268,0.198 -0.659,0.384 -1.173,0.561 -0.515,0.176 -1.139,0.264 -1.871,0.264 -1.255,0 -2.316,-0.529 -3.182,-1.586 -0.867,-1.057 -1.301,-2.685 -1.301,-4.883 v -10.974 h -5.116 v 21.735 h 5.116 v -3.425 h 0.085 c 0.465,1.183 1.17,2.11 2.114,2.78 C -2.459,-0.335 -1.325,0 0,0" /></g><g
           transform="translate(266.7729,84.5029)"
           id="g36"><path
             id="path38"
             style="fill:#706d6e;fill-opacity:1;fill-rule:nonzero;stroke:none"
             d="m 0,0 c 0,1.691 -0.392,2.982 -1.174,3.869 -0.782,0.889 -1.885,1.332 -3.308,1.332 -1.227,0 -2.326,-0.439 -3.299,-1.32 C -8.753,3 -9.402,1.706 -9.726,0 Z m 3.277,-7.59 v -4.207 c -0.846,-0.535 -1.952,-0.969 -3.319,-1.301 -1.368,-0.33 -2.827,-0.496 -4.377,-0.496 -3.312,0 -5.888,0.98 -7.727,2.939 -1.84,1.959 -2.76,4.686 -2.76,8.182 0,3.369 0.983,6.142 2.949,8.32 1.967,2.177 4.458,3.266 7.475,3.266 3.002,0 5.338,-0.92 7.008,-2.759 C 4.197,4.515 5.032,1.975 5.032,-1.268 V -3.742 H -9.853 c 0.226,-2.184 0.927,-3.71 2.104,-4.576 1.177,-0.868 2.696,-1.301 4.556,-1.301 1.227,0 2.396,0.186 3.51,0.56 1.113,0.373 2.1,0.864 2.96,1.469" /></g></g></g><g
       id="g40"><g
         clip-path="url(#clipPath46)"
         id="g42"><g
           transform="translate(326.5522,130.668)"
           id="g48"><path
             id="path50"
             style="fill:#706d6e;fill-opacity:1;fill-rule:nonzero;stroke:none"
             d="M 0,0 H -7.62 V -17.548 H -12.8 V 0 h -3.637 V 4.187 H -12.8 V 7.21 c 0,2.283 0.743,4.154 2.231,5.613 1.486,1.459 3.393,2.189 5.718,2.189 0.621,0 1.17,-0.033 1.65,-0.096 0.479,-0.063 0.902,-0.158 1.268,-0.285 v -4.419 c -0.169,0.099 -0.465,0.219 -0.888,0.359 -0.423,0.141 -0.909,0.212 -1.458,0.212 -1.072,0 -1.896,-0.335 -2.474,-1.005 C -7.332,9.109 -7.62,8.119 -7.62,6.809 V 4.187 H 0 V 9.07 l 5.138,1.565 V 4.187 h 5.18 V 0 h -5.18 v -10.169 c 0,-1.34 0.243,-2.284 0.729,-2.833 0.487,-0.55 1.251,-0.825 2.294,-0.825 0.296,0 0.652,0.07 1.068,0.212 0.416,0.14 0.778,0.309 1.089,0.507 v -4.229 C 9.993,-17.52 9.454,-17.688 8.7,-17.844 c -0.754,-0.155 -1.497,-0.232 -2.23,-0.232 -2.157,0 -3.774,0.573 -4.852,1.722 C 0.539,-15.205 0,-13.475 0,-11.163 Z m -33.973,-6.829 c 0,-2.27 0.515,-4.003 1.544,-5.201 1.028,-1.199 2.501,-1.797 4.418,-1.797 1.861,0 3.278,0.598 4.25,1.797 0.972,1.198 1.459,2.974 1.459,5.328 0,2.34 -0.504,4.105 -1.512,5.297 -1.008,1.19 -2.421,1.786 -4.239,1.786 -1.875,0 -3.33,-0.624 -4.366,-1.871 -1.036,-1.247 -1.554,-3.028 -1.554,-5.339 m -5.328,-0.169 c 0,3.595 1.015,6.441 3.045,8.542 2.029,2.1 4.848,3.15 8.457,3.15 3.397,0 6.05,-1.011 7.96,-3.034 1.91,-2.023 2.865,-4.754 2.865,-8.193 0,-3.524 -1.015,-6.328 -3.045,-8.414 -2.029,-2.087 -4.792,-3.129 -8.288,-3.129 -3.369,0 -6.043,0.989 -8.023,2.97 -1.981,1.98 -2.971,4.683 -2.971,8.108 m -11.521,5.476 c 0,-0.733 0.232,-1.307 0.697,-1.723 0.465,-0.416 1.494,-0.941 3.087,-1.575 2.044,-0.818 3.478,-1.738 4.302,-2.759 0.825,-1.023 1.237,-2.259 1.237,-3.711 0,-2.044 -0.786,-3.686 -2.357,-4.926 -1.572,-1.241 -3.696,-1.86 -6.374,-1.86 -0.902,0 -1.9,0.108 -2.992,0.327 -1.092,0.219 -2.019,0.497 -2.78,0.835 v 5.032 c 0.93,-0.648 1.931,-1.163 3.002,-1.543 1.071,-0.381 2.043,-0.571 2.917,-0.571 1.156,0 2.009,0.162 2.559,0.486 0.55,0.324 0.824,0.867 0.824,1.628 0,0.705 -0.285,1.3 -0.856,1.786 -0.57,0.487 -1.652,1.047 -3.245,1.682 -1.889,0.789 -3.228,1.677 -4.017,2.663 -0.79,0.987 -1.184,2.241 -1.184,3.764 0,1.959 0.778,3.569 2.336,4.831 1.557,1.261 3.577,1.892 6.058,1.892 0.76,0 1.613,-0.085 2.558,-0.254 0.944,-0.169 1.733,-0.387 2.367,-0.655 v -4.863 c -0.676,0.451 -1.465,0.839 -2.367,1.163 -0.903,0.324 -1.798,0.486 -2.685,0.486 -0.973,0 -1.731,-0.19 -2.273,-0.57 -0.543,-0.381 -0.814,-0.902 -0.814,-1.565 m -24.61,-5.307 c 0,-2.27 0.515,-4.003 1.544,-5.201 1.028,-1.199 2.501,-1.797 4.418,-1.797 1.861,0 3.278,0.598 4.25,1.797 0.972,1.198 1.459,2.974 1.459,5.328 0,2.34 -0.504,4.105 -1.512,5.297 -1.008,1.19 -2.421,1.786 -4.239,1.786 -1.875,0 -3.33,-0.624 -4.366,-1.871 -1.036,-1.247 -1.554,-3.028 -1.554,-5.339 m -5.328,-0.169 c 0,3.595 1.015,6.441 3.045,8.542 2.029,2.1 4.848,3.15 8.457,3.15 3.397,0 6.05,-1.011 7.96,-3.034 1.91,-2.023 2.865,-4.754 2.865,-8.193 0,-3.524 -1.015,-6.328 -3.045,-8.414 -2.029,-2.087 -4.792,-3.129 -8.288,-3.129 -3.369,0 -6.043,0.989 -8.023,2.97 -1.981,1.98 -2.971,4.683 -2.971,8.108 m -2.201,11.544 c 0.409,0 0.775,-0.028 1.1,-0.085 0.324,-0.056 0.599,-0.126 0.824,-0.211 v -5.18 c -0.268,0.198 -0.659,0.384 -1.173,0.56 -0.515,0.177 -1.139,0.265 -1.871,0.265 -1.255,0 -2.315,-0.529 -3.182,-1.586 -0.867,-1.057 -1.3,-2.685 -1.3,-4.884 V -17.548 H -93.68 V 4.187 h 5.117 V 0.762 h 0.084 c 0.465,1.183 1.17,2.11 2.114,2.78 0.945,0.669 2.079,1.004 3.404,1.004 m -19.62,-18.373 c 0.761,0 1.6,0.176 2.516,0.528 0.916,0.353 1.762,0.818 2.537,1.396 v -4.757 c -0.817,-0.465 -1.744,-0.818 -2.78,-1.057 -1.036,-0.24 -2.174,-0.359 -3.415,-0.359 -3.199,0 -5.8,1.011 -7.801,3.033 -2.002,2.022 -3.002,4.605 -3.002,7.749 0,3.495 1.022,6.374 3.066,8.637 2.043,2.262 4.939,3.393 8.689,3.393 0.958,0 1.927,-0.124 2.907,-0.37 0.98,-0.247 1.758,-0.532 2.336,-0.856 v -4.906 c -0.789,0.579 -1.596,1.026 -2.421,1.343 -0.824,0.318 -1.667,0.476 -2.526,0.476 -2.016,0 -3.644,-0.655 -4.884,-1.966 -1.241,-1.311 -1.861,-3.08 -1.861,-5.307 0,-2.199 0.595,-3.912 1.787,-5.137 1.191,-1.227 2.808,-1.84 4.852,-1.84 m -15.519,-3.721 h -5.116 V 4.186 h 5.116 z m -5.645,28.014 c 0,0.846 0.307,1.554 0.92,2.125 0.614,0.57 1.343,0.856 2.188,0.856 0.902,0 1.65,-0.293 2.241,-0.878 0.593,-0.585 0.889,-1.286 0.889,-2.103 0,-0.832 -0.304,-1.529 -0.91,-2.093 -0.606,-0.564 -1.346,-0.846 -2.22,-0.846 -0.874,0 -1.61,0.285 -2.209,0.856 -0.599,0.571 -0.899,1.265 -0.899,2.083 m -4.401,2.305 v -30.319 h -5.265 V 6.216 h -0.085 l -9.408,-23.764 h -3.489 l -9.641,23.764 h -0.063 v -23.764 h -4.863 v 30.319 h 7.548 l 8.711,-22.475 h 0.126 l 9.198,22.475 z" /></g></g></g><path
       id="path52"
       style="fill:#f1511b;fill-opacity:1;fill-rule:nonzero;stroke:none"
       d="M 106.213,109.219 H 71.994 v 34.218 h 34.219 z" /><path
       id="path54"
       style="fill:#80cc28;fill-opacity:1;fill-rule:nonzero;stroke:none"
       d="m 143.992,109.219 h -34.218 v 34.218 h 34.218 z" /><path
       id="path56"
       style="fill:#00adef;fill-opacity:1;fill-rule:nonzero;stroke:none"
       d="M 106.213,71.439 H 71.994 v 34.218 h 34.219 z" /><path
       id="path58"
       style="fill:#fbbc09;fill-opacity:1;fill-rule:nonzero;stroke:none"
       d="m 143.992,71.439 h -34.218 v 34.218 h 34.218 z" /></g></svg>

<?xml version="1.0" encoding="UTF-8" standalone="no"?>
<!DOCTYPE svg PUBLIC "-//W3C//DTD SVG 1.1//EN" "http://www.w3.org/Graphics/SVG/1.1/DTD/svg11.dtd">
<svg xmlns="http://www.w3.org/2000/svg" xmlns:xlink="http://www.w3.org/1999/xlink" version="1.1" width="273.0979pt" height="87.12063pt" viewBox="0 0 273.0979 87.12063">
<g enable-background="new">
<g id="Layer-1" data-name="Azure s">
<path transform="matrix(1,0,0,-1,109.2824,55.054605)" d="M 0 0 L -4.482 -12.77 L 4.609 -12.77 L .148 0 Z M 3.129 5.624 L 14.546 -24.694 L 8.753 -24.694 L 6.068 -17.168 L -5.877 -17.168 L -8.457 -24.694 L -14.208 -24.694 L -2.791 5.624 Z " fill="#77787b"/>
<path transform="matrix(1,0,0,-1,126.393199,58.014505)" d="M 0 0 L 17.358 0 L 17.358 -2.051 L 5.962 -17.675 L 17.422 -17.675 L 17.422 -21.734 L -.803 -21.734 L -.803 -19.303 L 10.423 -4.06 L 0 -4.06 Z " fill="#77787b"/>
<clipPath id="cp0">
<path transform="matrix(1,0,0,-1,-68.7176,151.1864)" d="M 0 215.433 L 408.189 215.433 L 408.189 0 L 0 0 Z "/>
</clipPath>
<g clip-path="url(#cp0)">
<path transform="matrix(1,0,0,-1,165.58661,58.014505)" d="M 0 0 L 0 -21.734 L -5.159 -21.734 L -5.159 -18.88 L -5.243 -18.88 C -5.92 -19.866 -6.826 -20.639 -7.96 -21.195 C -9.095 -21.752 -10.367 -22.03 -11.776 -22.03 C -14.3 -22.03 -16.22 -21.315 -17.538 -19.884 C -18.856 -18.454 -19.515 -16.23 -19.515 -13.214 L -19.515 0 L -14.334 0 L -14.334 -12.601 C -14.334 -14.433 -13.972 -15.812 -13.246 -16.734 C -12.52 -17.657 -11.424 -18.119 -9.958 -18.119 C -8.506 -18.119 -7.344 -17.608 -6.47 -16.586 C -5.596 -15.564 -5.159 -14.229 -5.159 -12.579 L -5.159 0 Z " fill="#77787b"/>
<path transform="matrix(1,0,0,-1,180.99192,57.655206)" d="M 0 0 C .409 0 .775 -.028 1.1 -.085 C 1.424 -.141 1.699 -.211 1.924 -.296 L 1.924 -5.476 C 1.656 -5.278 1.265 -5.092 .751 -4.915 C .236 -4.739 -.388 -4.651 -1.12 -4.651 C -2.375 -4.651 -3.436 -5.18 -4.302 -6.237 C -5.169 -7.294 -5.603 -8.922 -5.603 -11.12 L -5.603 -22.094 L -10.719 -22.094 L -10.719 -.359 L -5.603 -.359 L -5.603 -3.784 L -5.518 -3.784 C -5.053 -2.601 -4.348 -1.674 -3.404 -1.004 C -2.459 -.335 -1.325 0 0 0 " fill="#77787b"/>
<path transform="matrix(1,0,0,-1,198.0553,66.6835)" d="M 0 0 C 0 1.691 -.392 2.982 -1.174 3.869 C -1.956 4.758 -3.059 5.201 -4.482 5.201 C -5.709 5.201 -6.808 4.762 -7.781 3.881 C -8.753 3 -9.402 1.706 -9.726 0 Z M 3.277 -7.59 L 3.277 -11.797 C 2.431 -12.332 1.325 -12.766 -.042 -13.098 C -1.41 -13.428 -2.869 -13.594 -4.419 -13.594 C -7.731 -13.594 -10.307 -12.614 -12.146 -10.655 C -13.986 -8.696 -14.906 -5.969 -14.906 -2.473 C -14.906 .896 -13.923 3.669 -11.957 5.847 C -9.99 8.024 -7.499 9.113 -4.482 9.113 C -1.48 9.113 .856 8.193 2.526 6.354 C 4.197 4.515 5.032 1.975 5.032 -1.268 L 5.032 -3.742 L -9.853 -3.742 C -9.627 -5.926 -8.926 -7.452 -7.749 -8.318 C -6.572 -9.186 -5.053 -9.619 -3.193 -9.619 C -1.966 -9.619 -.797 -9.433 .317 -9.059 C 1.43 -8.686 2.417 -8.195 3.277 -7.59 " fill="#77787b"/>
</g>
<g id="Layer-1" data-name="MS-logotype">
</g>
<clipPath id="cp1">
<path transform="matrix(1,0,0,-1,-68.7176,151.1864)" d="M 0 215.433 L 408.189 215.433 L 408.189 0 L 0 0 Z "/>
</clipPath>
<g clip-path="url(#cp1)">
<path transform="matrix(1,0,0,-1,257.8346,20.518403)" d="M 0 0 L -7.62 0 L -7.62 -17.548 L -12.8 -17.548 L -12.8 0 L -16.437 0 L -16.437 4.187 L -12.8 4.187 L -12.8 7.21 C -12.8 9.493 -12.057 11.364 -10.569 12.823 C -9.083 14.282 -7.176 15.012 -4.851 15.012 C -4.23 15.012 -3.681 14.979 -3.201 14.916 C -2.722 14.853 -2.299 14.758 -1.933 14.631 L -1.933 10.212 C -2.102 10.311 -2.398 10.431 -2.821 10.571 C -3.244 10.712 -3.73 10.783 -4.279 10.783 C -5.351 10.783 -6.175 10.448 -6.753 9.778 C -7.332 9.109 -7.62 8.119 -7.62 6.809 L -7.62 4.187 L 0 4.187 L 0 9.07 L 5.138 10.635 L 5.138 4.187 L 10.318 4.187 L 10.318 0 L 5.138 0 L 5.138 -10.169 C 5.138 -11.509 5.381 -12.453 5.867 -13.002 C 6.354 -13.552 7.118 -13.827 8.161 -13.827 C 8.457 -13.827 8.813 -13.757 9.229 -13.615 C 9.645 -13.475 10.007 -13.306 10.318 -13.108 L 10.318 -17.337 C 9.993 -17.52 9.454 -17.688 8.7 -17.844 C 7.946 -17.999 7.203 -18.076 6.47 -18.076 C 4.313 -18.076 2.696 -17.503 1.618 -16.354 C .539 -15.205 0 -13.475 0 -11.163 Z M -33.973 -6.829 C -33.973 -9.099 -33.458 -10.832 -32.429 -12.03 C -31.401 -13.229 -29.928 -13.827 -28.011 -13.827 C -26.15 -13.827 -24.733 -13.229 -23.761 -12.03 C -22.789 -10.832 -22.302 -9.056 -22.302 -6.702 C -22.302 -4.362 -22.806 -2.597 -23.814 -1.405 C -24.822 -.215 -26.235 .381 -28.053 .381 C -29.928 .381 -31.383 -.243 -32.419 -1.49 C -33.455 -2.737 -33.973 -4.518 -33.973 -6.829 M -39.301 -6.998 C -39.301 -3.403 -38.286 -.557 -36.256 1.544 C -34.227 3.644 -31.408 4.694 -27.799 4.694 C -24.402 4.694 -21.749 3.683 -19.839 1.66 C -17.929 -.363 -16.974 -3.094 -16.974 -6.533 C -16.974 -10.057 -17.989 -12.861 -20.019 -14.947 C -22.048 -17.034 -24.811 -18.076 -28.307 -18.076 C -31.676 -18.076 -34.35 -17.087 -36.33 -15.106 C -38.311 -13.126 -39.301 -10.423 -39.301 -6.998 M -50.822 -1.522 C -50.822 -2.255 -50.59 -2.829 -50.125 -3.245 C -49.66 -3.661 -48.631 -4.186 -47.038 -4.82 C -44.994 -5.638 -43.56 -6.558 -42.736 -7.579 C -41.911 -8.602 -41.499 -9.838 -41.499 -11.29 C -41.499 -13.334 -42.285 -14.976 -43.856 -16.216 C -45.428 -17.457 -47.552 -18.076 -50.23 -18.076 C -51.132 -18.076 -52.13 -17.968 -53.222 -17.749 C -54.314 -17.53 -55.241 -17.252 -56.002 -16.914 L -56.002 -11.882 C -55.072 -12.53 -54.071 -13.045 -53 -13.425 C -51.929 -13.806 -50.957 -13.996 -50.083 -13.996 C -48.927 -13.996 -48.074 -13.834 -47.524 -13.51 C -46.974 -13.186 -46.7 -12.643 -46.7 -11.882 C -46.7 -11.177 -46.985 -10.582 -47.556 -10.096 C -48.126 -9.609 -49.208 -9.049 -50.801 -8.414 C -52.69 -7.625 -54.029 -6.737 -54.818 -5.751 C -55.608 -4.764 -56.002 -3.51 -56.002 -1.987 C -56.002 -.028 -55.224 1.582 -53.666 2.844 C -52.109 4.105 -50.089 4.736 -47.608 4.736 C -46.848 4.736 -45.995 4.651 -45.05 4.482 C -44.106 4.313 -43.317 4.095 -42.683 3.827 L -42.683 -1.036 C -43.359 -.585 -44.148 -.197 -45.05 .127 C -45.953 .451 -46.848 .613 -47.735 .613 C -48.708 .613 -49.466 .423 -50.008 .043 C -50.551 -.338 -50.822 -.859 -50.822 -1.522 M -75.432 -6.829 C -75.432 -9.099 -74.917 -10.832 -73.888 -12.03 C -72.86 -13.229 -71.387 -13.827 -69.47 -13.827 C -67.609 -13.827 -66.192 -13.229 -65.22 -12.03 C -64.248 -10.832 -63.761 -9.056 -63.761 -6.702 C -63.761 -4.362 -64.265 -2.597 -65.273 -1.405 C -66.281 -.215 -67.694 .381 -69.512 .381 C -71.387 .381 -72.842 -.243 -73.878 -1.49 C -74.914 -2.737 -75.432 -4.518 -75.432 -6.829 M -80.76 -6.998 C -80.76 -3.403 -79.745 -.557 -77.715 1.544 C -75.686 3.644 -72.867 4.694 -69.258 4.694 C -65.861 4.694 -63.208 3.683 -61.298 1.66 C -59.388 -.363 -58.433 -3.094 -58.433 -6.533 C -58.433 -10.057 -59.448 -12.861 -61.478 -14.947 C -63.507 -17.034 -66.27 -18.076 -69.766 -18.076 C -73.135 -18.076 -75.809 -17.087 -77.789 -15.106 C -79.77 -13.126 -80.76 -10.423 -80.76 -6.998 M -82.961 4.546 C -82.552 4.546 -82.186 4.518 -81.861 4.461 C -81.537 4.405 -81.262 4.335 -81.037 4.25 L -81.037 -.93 C -81.305 -.732 -81.696 -.546 -82.21 -.37 C -82.725 -.193 -83.349 -.105 -84.081 -.105 C -85.336 -.105 -86.396 -.634 -87.263 -1.691 C -88.13 -2.748 -88.563 -4.376 -88.563 -6.575 L -88.563 -17.548 L -93.68 -17.548 L -93.68 4.187 L -88.563 4.187 L -88.563 .762 L -88.479 .762 C -88.014 1.945 -87.309 2.872 -86.365 3.542 C -85.42 4.211 -84.286 4.546 -82.961 4.546 M -102.581 -13.827 C -101.82 -13.827 -100.981 -13.651 -100.065 -13.299 C -99.149 -12.946 -98.303 -12.481 -97.528 -11.903 L -97.528 -16.66 C -98.345 -17.125 -99.272 -17.478 -100.308 -17.717 C -101.344 -17.957 -102.482 -18.076 -103.723 -18.076 C -106.922 -18.076 -109.523 -17.065 -111.524 -15.043 C -113.526 -13.021 -114.526 -10.438 -114.526 -7.294 C -114.526 -3.799 -113.504 -.92 -111.46 1.343 C -109.417 3.605 -106.521 4.736 -102.771 4.736 C -101.813 4.736 -100.844 4.612 -99.864 4.366 C -98.884 4.119 -98.106 3.834 -97.528 3.51 L -97.528 -1.396 C -98.317 -.817 -99.124 -.37 -99.949 -.053 C -100.773 .265 -101.616 .423 -102.475 .423 C -104.491 .423 -106.119 -.232 -107.359 -1.543 C -108.6 -2.854 -109.22 -4.623 -109.22 -6.85 C -109.22 -9.049 -108.625 -10.762 -107.433 -11.987 C -106.242 -13.214 -104.625 -13.827 -102.581 -13.827 M -118.1 -17.548 L -123.215999 -17.548 L -123.215999 4.185999 L -118.1 4.185999 Z M -123.745 10.466 C -123.745 11.312 -123.438 12.02 -122.825 12.591 C -122.211 13.161 -121.482 13.447 -120.637 13.447 C -119.735 13.447 -118.987 13.154 -118.396 12.569 C -117.803 11.984 -117.507 11.283 -117.507 10.466 C -117.507 9.634 -117.811 8.937 -118.417 8.373 C -119.023 7.809 -119.763 7.527 -120.637 7.527 C -121.511 7.527 -122.247 7.812 -122.846 8.383 C -123.445 8.954 -123.745 9.648 -123.745 10.466 M -128.146 12.771 L -128.146 -17.548 L -133.411 -17.548 L -133.411 6.216 L -133.496 6.216 L -142.904 -17.548 L -146.393 -17.548 L -156.034 6.216 L -156.097 6.216 L -156.097 -17.548 L -160.96 -17.548 L -160.96 12.771 L -153.412 12.771 L -144.701 -9.704 L -144.575 -9.704 L -135.377 12.771 Z " fill="#77787b"/>
</g>
<g id="Layer-1" data-name="MS-symbol">
</g>
<path transform="matrix(1,0,0,-1,-68.7176,151.1864)" d="M 106.213 109.219 L 71.993999 109.219 L 71.993999 143.437 L 106.213 143.437 Z " fill="#f26522"/>
<path transform="matrix(1,0,0,-1,-68.7176,151.1864)" d="M 143.992 109.219 L 109.774 109.219 L 109.774 143.437 L 143.992 143.437 Z " fill="#8dc63f"/>
<path transform="matrix(1,0,0,-1,-68.7176,151.1864)" d="M 106.213 71.439 L 71.993999 71.439 L 71.993999 105.657 L 106.213 105.657 Z " fill="#00aeef"/>
<path transform="matrix(1,0,0,-1,-68.7176,151.1864)" d="M 143.992 71.439 L 109.774 71.439 L 109.774 105.657 L 143.992 105.657 Z " fill="#ffc20d"/>
</g>
</g>
</svg>
